src/images/benefit-one.svg

<svg width="72" height="60" viewBox="0 0 72 60" fill="none" xmlns="http://www.w3.org/2000/svg">
<path d="M14.0933 25.6365H23.6869V47.0718H14.0933V25.6365Z" fill="#FA8334"/>
<path d="M30.9175 25.6365H40.5112V47.0718H30.9175V25.6365Z" fill="#FA8334"/>
<path d="M47.7416 25.6365H57.3352V47.0718H47.7416V25.6365Z" fill="#FA8334"/>
<path d="M7.46888 21.6504H9.08286V25.6364C9.08286 26.3843 9.70758 26.9905 10.4779 26.9905H60.9505C61.7208 26.9905 62.3456 26.3843 62.3456 25.6364V21.6504H63.9595C64.73 21.6504 65.3546 21.0442 65.3546 20.2963V13.6799C65.3546 12.932 64.73 12.3257 63.9595 12.3257H62.351L36.3206 0.134569C35.9375 -0.0448563 35.4912 -0.0448563 35.1081 0.134569L9.07742 12.3259H7.46888C6.69837 12.3259 6.07379 12.9321 6.07379 13.68V20.2964C6.07379 21.0442 6.69851 21.6504 7.46888 21.6504ZM11.873 21.6504H25.9071V24.2822H11.873V21.6504ZM28.6973 21.6504H42.7313V24.2822H28.6973V21.6504ZM59.5555 24.2824H45.5215V21.6506H59.5555V24.2824ZM62.5646 18.9421H8.86397V15.034H62.5646V18.9421ZM35.7143 2.85763L55.9304 12.3257H15.4982L35.7143 2.85763Z" fill="white"/>
<path d="M70.0335 57.2917H67.9262V52.4118C67.9262 51.6639 67.3015 51.0576 66.5311 51.0576H62.3457V47.0717C62.3457 46.3238 61.721 45.7176 60.9506 45.7176H10.478C9.70759 45.7176 9.08287 46.3238 9.08287 47.0717V51.0576H4.89746C4.12709 51.0576 3.50237 51.6639 3.50237 52.4118V57.2917H1.39509C0.624582 57.2917 0 57.898 0 58.6459C0 59.3938 0.624582 60 1.39509 60H70.0335C70.8039 60 71.4286 59.3938 71.4286 58.6459C71.4286 57.898 70.8039 57.2917 70.0335 57.2917ZM59.5555 51.0578H45.5215V48.426H59.5555V51.0578ZM42.7313 51.0578H28.6973V48.426H42.7313V51.0578ZM11.873 48.4259H25.9071V51.0576H11.873V48.4259ZM6.29255 57.2917V53.7659H65.1359V57.2917H6.29255Z" fill="white"/>
</svg>

<svg width="72" height="60" fill="none" xmlns="http://www.w3.org/2000/svg"><path d="M14.093 25.637h9.594v21.435h-9.594V25.636zM30.918 25.637h9.593v21.435h-9.594V25.636zM47.742 25.637h9.593v21.435h-9.593V25.636z" fill="#FA8334"/><path d="M7.469 21.65h1.614v3.986c0 .748.625 1.355 1.395 1.355H60.95c.77 0 1.396-.607 1.396-1.355V21.65h1.614c.77 0 1.395-.606 1.395-1.354V13.68c0-.748-.625-1.354-1.396-1.354h-1.608L36.321.135c-.383-.18-.83-.18-1.213 0l-26.03 12.19h-1.61c-.77 0-1.394.607-1.394 1.355v6.616c0 .748.625 1.354 1.395 1.354zm4.404 0h14.034v2.632H11.873V21.65zm16.824 0h14.034v2.632H28.697V21.65zm30.859 2.632H45.522v-2.631h14.034v2.631zm3.009-5.34H8.864v-3.908h53.7v3.908zM35.715 2.858l20.215 9.468H15.498l20.216-9.468zM70.034 57.292h-2.108v-4.88c0-.748-.624-1.354-1.395-1.354h-4.185v-3.986c0-.748-.625-1.354-1.395-1.354H10.478c-.77 0-1.395.606-1.395 1.354v3.986H4.897c-.77 0-1.395.606-1.395 1.354v4.88H1.395c-.77 0-1.395.606-1.395 1.354C0 59.394.625 60 1.395 60h68.639c.77 0 1.395-.606 1.395-1.354 0-.748-.625-1.354-1.395-1.354zm-10.479-6.234H45.523v-2.632h14.034v2.632zm-16.824 0H28.697v-2.632h14.034v2.632zm-30.858-2.632h14.034v2.632H11.873v-2.632zm-5.58 8.866v-3.526h58.843v3.526H6.293z" fill="#fff"/></svg>
